X: 15
T:East neuk of Fife
M:4/4
L:1/8
R:Reel
K:G
D|"G"G2 G2 G2 Bc|"G"dBGB dBGB|"Am"A2 A2 A2 gf|"C"edef "D"gage|
"G"dcBA GABc|"Em"dBGB d2 cB|"C"ABce "D"dBAB|"Em"G2 E2 E2:|
|:dc|"G"B2 G2 G2 dc|"G"B2 G2 G2 ed|"Am"c2 A2 A2 fg|"D"a2 A2 A2 Bc|
"G"d2 G2 B2 G2|"G"g2 G2 d2 cB|"C"ABce "D"dBAB|"Em"G2 E2 E2:||
